src/lib/packages/icons/src/assets/filled/medal-star.svg

<svg width="24" height="24" viewBox="0 0 24 24" fill="none" xmlns="http://www.w3.org/2000/svg">
<path fill-rule="evenodd" clip-rule="evenodd" d="M12 8C8.41 8 5.5 10.91 5.5 14.5C5.5 18.09 8.41 21 12 21C15.59 21 18.5 18.09 18.5 14.5C18.5 10.91 15.59 8 12 8ZM14.9 14.14L13.8199 15.19C13.7399 15.26 13.7 15.37 13.72 15.48L13.97 16.92C14.02 17.21 13.71 17.43 13.45 17.29L12.16 16.61C12.06 16.56 11.94 16.56 11.84 16.61L10.55 17.29C10.29 17.43 9.98003 17.21 10.03 16.91L10.28 15.48C10.3 15.37 10.2601 15.26 10.1801 15.19L9.09998 14.14C8.89998 13.95 9.01004 13.61 9.29004 13.57L10.78 13.35C10.89 13.34 10.98 13.27 11.03 13.17L11.6801 11.87C11.8101 11.6 12.1899 11.6 12.3199 11.87L12.97 13.17C13.02 13.27 13.11 13.34 13.22 13.35L14.71 13.57C14.99 13.61 15.1 13.95 14.9 14.14ZM17.163 8.39999C16.279 7.64499 15.226 7.081 14.069 6.767C13.873 6.714 13.781 6.49501 13.889 6.32401L16 3H21L17.605 8.33899C17.507 8.49299 17.301 8.51899 17.163 8.39999ZM6.39502 8.33899L3 3H8L10.11 6.32401C10.219 6.49501 10.1261 6.714 9.93005 6.767C8.77405 7.081 7.72006 7.64599 6.83606 8.39999C6.69906 8.51899 6.49302 8.49299 6.39502 8.33899Z" fill="currentColor"/>
</svg>

<svg xmlns="http://www.w3.org/2000/svg" width="24" height="24" fill="none"><path fill="currentColor" fill-rule="evenodd" d="M12 8a6.5 6.5 0 1 0 0 13 6.5 6.5 0 0 0 0-13Zm2.9 6.14-1.08 1.05c-.08.07-.12.18-.1.29l.25 1.44c.05.29-.26.51-.52.37l-1.29-.68a.36.36 0 0 0-.32 0l-1.29.68a.358.358 0 0 1-.52-.38l.25-1.43a.312.312 0 0 0-.1-.29L9.1 14.14c-.2-.19-.09-.53.19-.57l1.49-.22c.11-.01.2-.08.25-.18l.65-1.3c.13-.27.51-.27.64 0l.65 1.3c.05.1.14.17.25.18l1.49.22c.28.04.39.38.19.57Zm2.263-5.74a7.981 7.981 0 0 0-3.094-1.633.295.295 0 0 1-.18-.443L16 3h5l-3.395 5.339a.292.292 0 0 1-.442.061ZM6.395 8.339 3 3h5l2.11 3.324a.294.294 0 0 1-.18.443A8.002 8.002 0 0 0 6.836 8.4a.291.291 0 0 1-.441-.061Z" clip-rule="evenodd"/></svg>
